X: 130610
T: Mangan's
S: Luke O'Malley Volume 1
Z: B.Black
M: 4/4
L: 1/8
R: reel
K: Gdor
DGG2 AGFG|(3AGF cF dFAF|DGG2 AGFG|AFcA BGGF|
DGG2 AGFG|AGAc dcAd|cAcd fagf|(3dfd cA BGG2 :|
dggf d2 cA|(3GAG FG Ac c2|dgg^f g2 =fg|agfg ag g2|
gagf d2 cA|(3GAG FG Ac c2|d^cde fagf|(3dfd cA BGG2 :|
